apps/spreadsheeteditor/main/resources/img/toolbar/2.5x/btn-named-range.svg

<svg width="20" height="20" viewBox="0 0 20 20" fill="none" xmlns="http://www.w3.org/2000/svg">
<path fill-rule="evenodd" clip-rule="evenodd" d="M16.9996 6L5.59322 6L3.13867 10.5L5.59322 15L16.9996 15V6ZM17.9996 6C17.9996 5.44772 17.5519 5 16.9996 5H5.59322C5.22727 5 4.89055 5.19989 4.71532 5.52115L2.26078 10.0211C2.09797 10.3196 2.09797 10.6804 2.26078 10.9789L4.71532 15.4789C4.89056 15.8001 5.22727 16 5.59322 16L16.9996 16C17.5519 16 17.9996 15.5523 17.9996 15V6ZM6.49958 11C6.77573 11 6.99958 10.7761 6.99958 10.5C6.99958 10.2239 6.77573 10 6.49958 10C6.22344 10 5.99958 10.2239 5.99958 10.5C5.99958 10.7761 6.22344 11 6.49958 11ZM6.49958 12C7.32801 12 7.99958 11.3284 7.99958 10.5C7.99958 9.67157 7.32801 9 6.49958 9C5.67116 9 4.99958 9.67157 4.99958 10.5C4.99958 11.3284 5.67116 12 6.49958 12ZM14.9996 8H10.9996V9H14.9996V8ZM10.9996 10H14.9996V11H10.9996V10ZM14.9996 12H10.9996V13H14.9996V12Z" fill="black"/>
</svg>

<svg width="20" height="20" fill="none" xmlns="http://www.w3.org/2000/svg"><path fill-rule="evenodd" clip-rule="evenodd" d="M17 6H5.593L3.14 10.5 5.593 15H17V6zm1 0a1 1 0 0 0-1-1H5.593a1 1 0 0 0-.878.521l-2.454 4.5a1 1 0 0 0 0 .958l2.454 4.5a1 1 0 0 0 .878.521H17a1 1 0 0 0 1-1V6zM6.5 11a.5.5 0 1 0 0-1 .5.5 0 0 0 0 1zm0 1a1.5 1.5 0 1 0 0-3 1.5 1.5 0 0 0 0 3zM15 8h-4v1h4V8zm-4 2h4v1h-4v-1zm4 2h-4v1h4v-1z" fill="#000"/></svg>
